icons/themes/default/sidebar.svg

<svg viewBox="0 0 20 20" fill="none" xmlns="http://www.w3.org/2000/svg">
<path fill-rule="evenodd" clip-rule="evenodd" d="M6.46039 3.4502L6.5002 3.4502H13.5002L13.54 3.4502C14.449 3.45018 15.1867 3.45017 15.768 3.52832C16.3736 3.60975 16.8912 3.78496 17.3033 4.19707C17.7154 4.60919 17.8906 5.12675 17.9721 5.73237C18.0502 6.3137 18.0502 7.05142 18.0502 7.96039V8.0002V12.0002V12.04C18.0502 12.949 18.0502 13.6867 17.9721 14.268C17.8906 14.8736 17.7154 15.3912 17.3033 15.8033C16.8912 16.2154 16.3736 16.3906 15.768 16.4721C15.1867 16.5502 14.449 16.5502 13.54 16.5502H13.5002H6.5002H6.46039C5.55142 16.5502 4.8137 16.5502 4.23237 16.4721C3.62675 16.3906 3.10919 16.2154 2.69707 15.8033C2.28496 15.3912 2.10975 14.8736 2.02832 14.268C1.95017 13.6867 1.95018 12.949 1.9502 12.04L1.9502 12.0002V8.0002L1.9502 7.96039C1.95018 7.05142 1.95017 6.3137 2.02832 5.73237C2.10975 5.12675 2.28496 4.60919 2.69707 4.19707C3.10919 3.78496 3.62675 3.60975 4.23237 3.52832C4.8137 3.45017 5.55142 3.45018 6.46039 3.4502ZM4.37894 4.61852C3.8953 4.68354 3.64856 4.80122 3.47489 4.97489C3.30122 5.14856 3.18354 5.3953 3.11852 5.87894C3.05136 6.3784 3.0502 7.04184 3.0502 8.0002V12.0002C3.0502 12.9586 3.05136 13.622 3.11852 14.1215C3.18354 14.6051 3.30122 14.8518 3.47489 15.0255C3.64856 15.1992 3.8953 15.3169 4.37894 15.3819C4.8784 15.449 5.54184 15.4502 6.5002 15.4502H7.9502V4.5502H6.5002C5.54184 4.5502 4.8784 4.55136 4.37894 4.61852ZM13.5002 15.4502H9.0502V4.5502H13.5002C14.4586 4.5502 15.122 4.55136 15.6215 4.61852C16.1051 4.68354 16.3518 4.80122 16.5255 4.97489C16.6992 5.14856 16.8169 5.3953 16.8819 5.87894C16.949 6.3784 16.9502 7.04184 16.9502 8.0002V12.0002C16.9502 12.9586 16.949 13.622 16.8819 14.1215C16.8169 14.6051 16.6992 14.8518 16.5255 15.0255C16.3518 15.1992 16.1051 15.3169 15.6215 15.3819C15.122 15.449 14.4586 15.4502 13.5002 15.4502ZM5.0002 6.2502C4.86213 6.2502 4.7502 6.36213 4.7502 6.5002V7.5002C4.7502 7.63827 4.86213 7.7502 5.0002 7.7502H6.0002C6.13827 7.7502 6.2502 7.63827 6.2502 7.5002V6.5002C6.2502 6.36213 6.13827 6.2502 6.0002 6.2502H5.0002ZM4.7502 9.5002C4.7502 9.36212 4.86213 9.2502 5.0002 9.2502H6.0002C6.13827 9.2502 6.2502 9.36212 6.2502 9.5002V10.5002C6.2502 10.6383 6.13827 10.7502 6.0002 10.7502H5.0002C4.86213 10.7502 4.7502 10.6383 4.7502 10.5002V9.5002ZM5.0002 12.2502C4.86213 12.2502 4.7502 12.3621 4.7502 12.5002V13.5002C4.7502 13.6383 4.86213 13.7502 5.0002 13.7502H6.0002C6.13827 13.7502 6.2502 13.6383 6.2502 13.5002V12.5002C6.2502 12.3621 6.13827 12.2502 6.0002 12.2502H5.0002Z" fill="currentColor" />
</svg>

<svg xmlns="http://www.w3.org/2000/svg" fill="none" viewBox="0 0 20 20">
  <path fill="currentColor" fill-rule="evenodd" d="M6.46 3.45h7.08c.909 0 1.647 0 2.228.078.606.082 1.123.257 1.535.67.412.411.588.929.67 1.534.077.582.077 1.32.077 2.228v4.08c0 .909 0 1.647-.078 2.228-.081.606-.257 1.123-.669 1.535-.412.412-.93.588-1.535.67-.581.077-1.319.077-2.228.077H6.46c-.909 0-1.646 0-2.228-.078-.605-.081-1.123-.257-1.535-.669-.412-.412-.587-.93-.669-1.535-.078-.581-.078-1.319-.078-2.228V7.96c0-.909 0-1.646.078-2.228.082-.605.257-1.123.67-1.535.411-.412.929-.587 1.534-.669.582-.078 1.32-.078 2.228-.078ZM4.38 4.62c-.484.065-.73.182-.904.356-.174.174-.291.42-.356.904-.068.5-.069 1.163-.069 2.121v4c0 .959.001 1.622.069 2.121.065.484.182.73.356.904.174.174.42.292.904.357.5.067 1.163.068 2.121.068h1.45V4.55H6.5c-.958 0-1.622.001-2.121.069ZM13.5 15.45H9.05V4.55h4.45c.959 0 1.622.001 2.121.069.484.065.73.182.905.356.173.174.29.42.356.904.067.5.068 1.163.068 2.121v4c0 .959-.001 1.622-.068 2.121-.065.484-.183.73-.357.904-.173.174-.42.292-.903.357-.5.067-1.163.068-2.122.068ZM5 6.25a.25.25 0 0 0-.25.25v1c0 .138.112.25.25.25h1a.25.25 0 0 0 .25-.25v-1A.25.25 0 0 0 6 6.25H5ZM4.75 9.5A.25.25 0 0 1 5 9.25h1a.25.25 0 0 1 .25.25v1a.25.25 0 0 1-.25.25H5a.25.25 0 0 1-.25-.25v-1ZM5 12.25a.25.25 0 0 0-.25.25v1c0 .138.112.25.25.25h1a.25.25 0 0 0 .25-.25v-1a.25.25 0 0 0-.25-.25H5Z" clip-rule="evenodd"/>
</svg>
